azure-patterns/svg-wiki.svg

<svg xmlns="http://www.w3.org/2000/svg" viewBox="0 0 35 30">
                                
                            
    <rect width="35" height="30" fill="black" fill-opacity="0"></rect>
    <path d="M9.70222 29.8659V0.440612H16.9789V29.8659H9.70222ZM12.1278 2.89272V27.4138H14.5533V2.89272H12.1278ZM0 29.8659V0.440612H7.27666V29.8659H0ZM2.42555 2.89272V27.4138H4.85111V2.89272H2.42555ZM25.8284 -1.20569e-06L35 27.7778L28.4434 30L19.2718 2.22222L25.8284 -1.20569e-06ZM21.9626 3.56322L29.7699 27.2797L32.3091 26.4368L24.4829 2.72031L21.9626 3.56322Z" fill="#0078D4"></path>
</svg>

<svg xmlns="http://www.w3.org/2000/svg" viewBox="0 0 35 30"><path fill="none" d="M0 0h35v30H0z"/><path d="M9.702 29.866V.44h7.277v29.425H9.702zm2.426-26.973v24.52h2.425V2.894h-2.425zM0 29.866V.44h7.277v29.425H0zM2.426 2.893v24.52H4.85V2.894H2.426zM25.828 0L35 27.778 28.443 30 19.272 2.222 25.828 0zm-3.865 3.563L29.77 27.28l2.54-.843L24.482 2.72l-2.52.843z" fill="#0078D4"/></svg>
